X:13
T:Shunting Yard Blues
C:Mark Woodward
N:Transcribed by Mike Stangeland
L:1/8
Q:1/4=201
M:4/4
K:G
z8 | {f}"Intro"g2 d2 B2 G2 | {^A}B2 G2 Bc ^cd | g2 d2 B2 G2 | {^A}B2 G2 {E}=FD B,2 | 
{f}g2 d2 B2 G2 | {^A}B2 G2 Bc ^cd | g2 d2 B2 G2 | {^A}B2 G2 {E}=FD B,2 | "C"E2 c2 =Fd z^F | 
^d2 Ge c2 D2 | E2 c2 E^A zE | A2 G2 E2 D2 | {f}"G"g2 d2 B2 G2 | {^A}B2 G2 Bc ^cd | 
{f}g2 d2 B2 G2 | {^A}B2 G2 Bc ^cd | "D"f2 d2 Ed zD | d2 G,A, B,D D2 | {^D}"C"E2 c2 E^A zE | 
A2 G2 E2 D2 | "G"{^A,}B,2 G2 B,=F zB, | {^D}E2 B,2 {C}^C2 =D2 | "D"[D2A,2] [f2c2D2A,2] [f3c3D3A,3][fcDA,] | 
[f2c2D2A,2] [f2c2D2A,2] [f2c2D2A,2] [f2c2D2A,2] | 


